assets/svg/icon_identitykey.svg

<svg width="24" height="24" viewBox="0 0 24 24" fill="none" xmlns="http://www.w3.org/2000/svg">
<path d="M15.5 9.63516C15.5 9.28438 15.7844 9 16.1352 9H18.9101C19.2609 9 19.5453 9.28438 19.5453 9.63516C19.5453 9.98593 19.2609 10.2703 18.9101 10.2703H16.1352C15.7844 10.2703 15.5 9.98593 15.5 9.63516Z" fill="#494949"/>
<path fill-rule="evenodd" clip-rule="evenodd" d="M8.5934 3C6.46644 3 4.74219 4.72426 4.74219 6.85123C4.74219 8.97821 6.46644 10.7025 8.5934 10.7025C10.7204 10.7025 12.4446 8.97821 12.4446 6.85123C12.4446 4.72426 10.7204 3 8.5934 3ZM5.95837 6.85123C5.95837 5.39593 7.13812 4.21618 8.5934 4.21618C10.0488 4.21618 11.2285 5.39593 11.2285 6.85123C11.2285 8.30654 10.0488 9.48629 8.5934 9.48629C7.13812 9.48629 5.95837 8.30654 5.95837 6.85123Z" fill="#494949"/>
<path fill-rule="evenodd" clip-rule="evenodd" d="M8.59446 11.9224C6.71869 11.9224 4.99048 12.3488 3.70986 13.0691C2.44831 13.7787 1.5001 14.8542 1.5001 16.179L1.50006 16.2617C1.49914 17.2037 1.49799 18.386 2.53501 19.2304C3.04537 19.646 3.75934 19.9415 4.72396 20.1368C5.69128 20.3326 6.95202 20.4356 8.59446 20.4356C10.2369 20.4356 11.4977 20.3326 12.465 20.1368C13.4297 19.9415 14.1436 19.646 14.6539 19.2304C15.6909 18.386 15.6898 17.2037 15.6889 16.2617L15.6888 16.179C15.6888 14.8542 14.7407 13.7787 13.4791 13.0691C12.1985 12.3488 10.4703 11.9224 8.59446 11.9224ZM2.71628 16.179C2.71628 15.4888 3.22009 14.7399 4.30611 14.1291C5.37307 13.5289 6.888 13.1385 8.59446 13.1385C10.301 13.1385 11.8159 13.5289 12.8829 14.1291C13.9689 14.7399 14.4727 15.4888 14.4727 16.179C14.4727 17.2393 14.44 17.8362 13.886 18.2874C13.5856 18.5321 13.0834 18.7708 12.2237 18.9448C11.3668 19.1183 10.1952 19.2194 8.59446 19.2194C6.9938 19.2194 5.82219 19.1183 4.96524 18.9448C4.10559 18.7708 3.60338 18.5321 3.30296 18.2874C2.74897 17.8362 2.71628 17.2393 2.71628 16.179Z" fill="#494949"/>
<path d="M17.7 17.3264C19.0341 17.3202 20.2396 16.9955 21.1168 16.2142C22.011 15.4179 22.4661 14.2354 22.4661 12.7182V10.1082C22.4661 8.59116 22.011 7.40862 21.1168 6.61231C20.2311 5.82348 19.0108 5.5 17.6612 5.5H14.5V6.70215H17.6612C18.8186 6.70215 19.6873 6.97974 20.264 7.49324C20.8321 7.99925 21.2127 8.82029 21.2127 10.1082V12.7182C21.2127 14.0061 20.8321 14.8272 20.264 15.3332C19.6938 15.841 18.838 16.1181 17.7 16.1242V17.3264Z" fill="#494949"/>
<path d="M15.0984 6.1C15.0984 6.43137 14.8298 6.7 14.4984 6.7C14.1671 6.7 13.8984 6.43137 13.8984 6.1C13.8984 5.76863 14.1671 5.5 14.4984 5.5C14.8298 5.5 15.0984 5.76863 15.0984 6.1Z" fill="#494949"/>
<path d="M18.3016 16.725C18.3016 17.0564 18.0329 17.325 17.7016 17.325C17.3702 17.325 17.1016 17.0564 17.1016 16.725C17.1016 16.3936 17.3702 16.125 17.7016 16.125C18.0329 16.125 18.3016 16.3936 18.3016 16.725Z" fill="#494949"/>
<path d="M16.5 12.8344C16.5 12.4836 16.7844 12.1992 17.1352 12.1992H18.9101C19.2609 12.1992 19.5453 12.4836 19.5453 12.8344C19.5453 13.1851 19.2609 13.4695 18.9101 13.4695H17.1352C16.7844 13.4695 16.5 13.1851 16.5 12.8344Z" fill="#494949"/>
</svg>

<svg xmlns="http://www.w3.org/2000/svg" width="24" height="24" fill="none"><path fill="#494949" d="M15.5 9.635c0-.35.284-.635.635-.635h2.775a.635.635 0 1 1 0 1.27h-2.775a.635.635 0 0 1-.635-.635"/><path fill="#494949" fill-rule="evenodd" d="M8.593 3a3.851 3.851 0 1 0 0 7.702 3.851 3.851 0 0 0 0-7.702M5.958 6.851a2.635 2.635 0 1 1 5.27 0 2.635 2.635 0 0 1-5.27 0M8.594 11.922c-1.875 0-3.604.427-4.884 1.147-1.262.71-2.21 1.785-2.21 3.11v.083c0 .942-.002 2.124 1.035 2.968.51.416 1.224.712 2.189.907.967.196 2.228.299 3.87.299 1.643 0 2.904-.103 3.871-.3.965-.194 1.679-.49 2.189-.906 1.037-.844 1.036-2.026 1.035-2.968v-.083c0-1.325-.948-2.4-2.21-3.11-1.28-.72-3.009-1.147-4.885-1.147M2.716 16.18c0-.69.504-1.44 1.59-2.05 1.067-.6 2.582-.99 4.288-.99s3.222.39 4.289.99c1.086.61 1.59 1.36 1.59 2.05 0 1.06-.033 1.657-.587 2.108-.3.245-.803.484-1.662.658-.857.173-2.029.274-3.63.274s-2.772-.1-3.629-.274c-.86-.174-1.362-.413-1.662-.658-.554-.45-.587-1.048-.587-2.108" clip-rule="evenodd"/><path fill="#494949" d="M17.7 17.326c1.334-.006 2.54-.33 3.417-1.112.894-.796 1.35-1.979 1.35-3.496v-2.61c0-1.517-.456-2.7-1.35-3.496C20.23 5.823 19.01 5.5 17.66 5.5H14.5v1.202h3.161c1.158 0 2.026.278 2.603.791.568.506.949 1.327.949 2.615v2.61c0 1.288-.38 2.11-.949 2.615-.57.508-1.426.785-2.564.791z"/><path fill="#494949" d="M15.098 6.1a.6.6 0 1 1-1.2 0 .6.6 0 0 1 1.2 0M18.302 16.725a.6.6 0 1 1-1.2 0 .6.6 0 0 1 1.2 0M16.5 12.834c0-.35.284-.635.635-.635h1.775a.635.635 0 0 1 0 1.27h-1.775a.635.635 0 0 1-.635-.635"/></svg>
